; generated by Slic3r 1.2.9 on 2016-12-23 at 11:53:22

; external perimeters extrusion width = 0.20mm
; perimeters extrusion width = 0.34mm
; infill extrusion width = 0.34mm
; solid infill extrusion width = 0.34mm
; top infill extrusion width = 0.34mm

M190 S55 ; set bed temperature
M104 S190 ; set temperature
G28 ; home all axes


M109 S190 ; wait for temperature to be reached
G21 ; set units to millimeters
G90 ; use absolute coordinates
M82 ; use absolute distances for extrusion
G92 E0 ; reset extrusion distance
G1 Z0.100 F3000000.000 ; move to next layer (0)
G1 X-5.074 Y2.204 F3000000.000 ; move to first brim point
G1 Z0.200 F3000000.000 ; move to next layer (1)
G92 E0 ; reset extrusion distance
G1 X-3.096 Y-1.214 F3000000.000 ; move to first perimeter point
G1 Z0.300 F3000000.000 ; move to next layer (2)
G92 E0 ; reset extrusion distance
G1 X-3.096 Y-1.214 F3000000.000 ; move to first perimeter point
G1 Z0.400 F3000000.000 ; move to next layer (3)
G92 E0 ; reset extrusion distance
G1 X-3.096 Y-1.214 F3000000.000 ; move to first perimeter point
G1 Z0.500 F3000000.000 ; move to next layer (4)
G1 X-3.093 Y-1.220 F3000000.000 ; move to first perimeter point
G1 X-2.269 Y-2.431 E0.76728 F360000.000 ; perimeter
G1 X-3.628 Y-1.410 E1.49630 ; perimeter
G1 X-3.422 Y-1.452 F3000000.000 ; move inwards before travel
G1 Z0.600 F3000000.000 ; move to next layer (5)
G1 X-3.096 Y-1.214 F3000000.000 ; move to first perimeter point
G1 X-2.269 Y-2.431 E1.51552 F360000.000 ; perimeter
G1 X-3.425 Y-1.446 F3000000.000 ; move inwards before travel
G1 Z0.700 F3000000.000 ; move to next layer (6)
G1 X-3.096 Y-1.214 F3000000.000 ; move to first perimeter point
G1 X-2.269 Y-2.431 E2.26367 F360000.000 ; perimeter
G1 X-3.898 Y-0.000 E2.98199 ; perimeter
G1 X-3.630 Y-1.404 E2.99260 ; perimeter
G1 X-3.425 Y-1.446 F3000000.000 ; move inwards before travel
M104 S0 ; turn off temperature
G28 X0  ; home X axis
M84     ; disable motors

; filament used = 130.0mm (0.3cm3)

; avoid_crossing_perimeters = 0
; bed_shape = 0x0,200x0,200x200,0x200
; bed_temperature = 0
; before_layer_gcode =
; bridge_acceleration = 0
; bridge_fan_speed = 100
; brim_width = 2
; complete_objects = 0
; cooling = 0
; default_acceleration = 0
; disable_fan_first_layers = 1
; duplicate_distance = 6
; end_gcode = M104 S0 ; turn off temperature\nG28 X0  ; home X axis\nM84     ; disable motors\n
; extruder_clearance_height = 20
; extruder_clearance_radius = 20
; extruder_offset = 0x0
; extrusion_axis = E
; extrusion_multiplier = 1
; fan_always_on = 0
; fan_below_layer_time = 60
; filament_colour = #FFFFFF
; filament_diameter = 1.75
; first_layer_acceleration = 0
; first_layer_bed_temperature = 55
; first_layer_extrusion_width = 100%
; first_layer_speed = 3000
; first_layer_temperature = 190
; gcode_arcs = 0
; gcode_comments = 1
; gcode_flavor = reprap
; infill_acceleration = 0
; infill_first = 0
; layer_gcode =
; max_fan_speed = 100
; max_print_speed = 1e+006
; max_volumetric_speed = 1e+006
; min_fan_speed = 50
; min_print_speed = 10
; min_skirt_length = 0
; notes =
; nozzle_diameter = 0.2
; only_retract_when_crossing_perimeters = 1
; ooze_prevention = 0
; output_filename_format = [input_filename_base].gcode
; perimeter_acceleration = 0
; post_process =
; pressure_advance = 0
; resolution = 0.1
; retract_before_travel = 2
; retract_layer_change = 0
; retract_length = 0
; retract_length_toolchange = 10
; retract_lift = 0
; retract_restart_extra = 0
; retract_restart_extra_toolchange = 0
; retract_speed = 40
; skirt_distance = 6
; skirt_height = 1
; skirts = 0
; slowdown_below_layer_time = 30
; spiral_vase = 0
; standby_temperature_delta = -5
; start_gcode = G28 ; home all axes\n\n
; temperature = 190
; threads = 4
; toolchange_gcode =
; travel_speed = 50000
; use_firmware_retraction = 0
; use_relative_e_distances = 0
; use_volumetric_e = 0
; vibration_limit = 0
; wipe = 0
; z_offset = 0
; dont_support_bridges = 1
; extrusion_width = 0
; first_layer_height = 0.1
; infill_only_where_needed = 0
; interface_shells = 0
; layer_height = 0.1
; raft_layers = 0
; seam_position = nearest
; support_material = 0
; support_material_angle = 0
; support_material_contact_distance = 0.2
; support_material_enforce_layers = 0
; support_material_extruder = 1
; support_material_extrusion_width = 0
; support_material_interface_extruder = 1
; support_material_interface_layers = 3
; support_material_interface_spacing = 0
; support_material_interface_speed = 100%
; support_material_pattern = pillars
; support_material_spacing = 2.5
; support_material_speed = 6000
; support_material_threshold = 0
; xy_size_compensation = 0
; bottom_solid_layers = 3
; bridge_flow_ratio = 1
; bridge_speed = 6000
; external_fill_pattern = rectilinear
; external_perimeter_extrusion_width = 0
; external_perimeter_speed = 75%
; external_perimeters_first = 0
; extra_perimeters = 1
; fill_angle = 45
; fill_density = 0%
; fill_pattern = rectilinear
; gap_fill_speed = 6000
; infill_every_layers = 1
; infill_extruder = 1
; infill_extrusion_width = 0
; infill_overlap = 15%
; infill_speed = 9000
; overhangs = 0
; perimeter_extruder = 1
; perimeter_extrusion_width = 0
; perimeter_speed = 6000
; perimeters = 3
; small_perimeter_speed = 6000
; solid_infill_below_area = 70
; solid_infill_every_layers = 0
; solid_infill_extruder = 1
; solid_infill_extrusion_width = 0
; solid_infill_speed = 200%
; thin_walls = 0
; top_infill_extrusion_width = 0
; top_solid_infill_speed = 200%
; top_solid_layers = 3
