; generated by Slic3r 1.2.9 on 2016-03-30 at 22:10:32

; external perimeters extrusion width = 0.30mm
; perimeters extrusion width = 0.51mm
; infill extrusion width = 0.73mm
; solid infill extrusion width = 0.51mm
; top infill extrusion width = 0.51mm

M107 ; disable fan
M190 S55 ; set bed temperature
M104 S190 ; set temperature
G28 ; home all axes


M109 S190 ; wait for temperature to be reached
G21 ; set units to millimeters
G90 ; use absolute coordinates
M82 ; use absolute distances for extrusion
G92 E0 ; reset extrusion distance
G1 Z0.200 F60000.000 ; move to next layer (0)
G1 X14.978 Y0.000 F60000.000 ; move to first brim point
G1 X14.978 Y13.643 E0.16038 F6000.000 ; brim
G1 X13.643 Y14.978 E0.18256 ; brim
G1 X-13.643 Y14.978 E0.50332 ; brim
G1 X-14.978 Y13.643 E0.52550 ; brim
G1 X-14.978 Y-13.643 E0.84626 ; brim
G1 X-13.643 Y-14.978 E0.86844 ; brim
G1 X13.643 Y-14.978 E1.18920 ; brim
G1 X14.978 Y-13.643 E1.21138 ; brim
G1 X14.978 Y-0.045 E1.37123 F6000.000 ; brim
G1 X14.821 Y0.000 F60000.000 ; move to first brim point
G1 X14.821 Y13.578 E1.53085 F6000.000 ; brim
G1 X13.578 Y14.821 E1.55150 ; brim
G1 X-13.578 Y14.821 E1.87073 ; brim
G1 X-14.821 Y13.578 E1.89138 ; brim
G1 X-14.821 Y-13.578 E2.21061 ; brim
G1 X-13.578 Y-14.821 E2.23126 ; brim
G1 X13.578 Y-14.821 E2.55049 ; brim
G1 X14.821 Y-13.578 E2.57114 F6000.000 ; brim
G1 X14.821 Y-0.045 E2.73023 ; brim
G1 X14.663 Y0.000 F60000.000 ; move to first brim point
G1 X14.663 Y13.513 E2.88908 F6000.000 ; brim
G1 X13.513 Y14.663 E2.90820 ; brim
G1 X-13.513 Y14.663 E3.22590 ; brim
G1 X-14.663 Y13.513 E3.24502 ; brim
G1 X-14.663 Y-13.513 E3.56272 ; brim
G1 X-13.513 Y-14.663 E3.58184 ; brim
G1 X13.513 Y-14.663 E3.89954 ; brim
G1 X14.663 Y-13.513 E3.91866 ; brim
G1 X14.663 Y-0.045 E4.07698 F6000.000 ; brim
G1 X14.506 Y0.000 F60000.000 ; move to first brim point
G1 X14.506 Y13.448 E4.23507 F6000.000 ; brim
G1 X13.448 Y14.506 E4.25266 ; brim
G1 X-13.448 Y14.506 E4.56883 ; brim
G1 X-14.506 Y13.448 E4.58642 ; brim
G1 X-14.506 Y-13.448 E4.90259 ; brim
G1 X-13.448 Y-14.506 E4.92018 ; brim
G1 X13.448 Y-14.506 E5.23635 ; brim
G1 X14.506 Y-13.448 E5.25395 F6000.000 ; brim
G1 X14.506 Y-0.045 E5.41150 ; brim
G1 X14.349 Y0.000 F60000.000 ; move to first brim point
G1 X14.349 Y13.383 E5.56882 F6000.000 ; brim
G1 X13.383 Y14.349 E5.58488 ; brim
G1 X-13.383 Y14.349 E5.89953 ; brim
G1 X-14.349 Y13.383 E5.91559 ; brim
G1 X-14.349 Y-13.383 E6.23023 ; brim
G1 X-13.383 Y-14.349 E6.24629 ; brim
G1 X13.383 Y-14.349 E6.56093 ; brim
G1 X14.349 Y-13.383 E6.57699 ; brim
G1 X14.349 Y-0.045 E6.73378 F6000.000 ; brim
G1 X14.192 Y0.000 F60000.000 ; move to first brim point
G1 X14.192 Y13.318 E6.89034 F6000.000 ; brim
G1 X13.318 Y14.192 E6.90487 ; brim
G1 X-13.318 Y14.192 E7.21798 ; brim
G1 X-14.192 Y13.318 E7.23252 ; brim
G1 X-14.192 Y-13.318 E7.54563 ; brim
G1 X-13.318 Y-14.192 E7.56016 ; brim
G1 X13.318 Y-14.192 E7.87327 ; brim
G1 X14.192 Y-13.318 E7.88780 F6000.000 ; brim
G1 X14.192 Y-0.045 E8.04383 ; brim
G1 X14.035 Y0.000 F60000.000 ; move to first brim point
G1 X14.035 Y13.253 E8.19962 F6000.000 ; brim
G1 X13.253 Y14.035 E8.21262 ; brim
G1 X-13.253 Y14.035 E8.52420 ; brim
G1 X-14.035 Y13.253 E8.53721 ; brim
G1 X-14.035 Y-13.253 E8.84879 ; brim
G1 X-13.253 Y-14.035 E8.86179 ; brim
G1 X13.253 Y-14.035 E9.17337 ; brim
G1 X14.035 Y-13.253 E9.18637 ; brim
G1 X14.035 Y-0.045 E9.34164 F6000.000 ; brim
G1 X13.878 Y0.000 F60000.000 ; move to first brim point
G1 X13.878 Y13.188 E9.49666 F6000.000 ; brim
G1 X13.188 Y13.878 E9.50813 ; brim
G1 X-13.188 Y13.878 E9.81819 ; brim
G1 X-13.878 Y13.188 E9.82966 ; brim
G1 X-13.878 Y-13.188 E10.13971 ; brim
G1 X-13.188 Y-13.878 E10.15118 ; brim
G1 X13.188 Y-13.878 E10.46124 ; brim
G1 X13.878 Y-13.188 E10.47271 F6000.000 ; brim
G1 X13.878 Y-0.045 E10.62721 ; brim
G1 X13.721 Y0.000 F60000.000 ; move to first brim point
G1 X13.721 Y13.123 E10.78147 F6000.000 ; brim
G1 X13.123 Y13.721 E10.79141 ; brim
G1 X-13.123 Y13.721 E11.09993 ; brim
G1 X-13.721 Y13.123 E11.10988 ; brim
G1 X-13.721 Y-13.123 E11.41840 ; brim
G1 X-13.123 Y-13.721 E11.42834 ; brim
G1 X13.123 Y-13.721 E11.73686 ; brim
G1 X13.721 Y-13.123 E11.74681 ; brim
G1 X13.721 Y-0.045 E11.90054 F6000.000 ; brim
G1 X13.564 Y0.000 F60000.000 ; move to first brim point
G1 X13.564 Y13.058 E12.05403 F6000.000 ; brim
G1 X13.058 Y13.564 E12.06245 ; brim
G1 X-13.058 Y13.564 E12.36944 ; brim
G1 X-13.564 Y13.058 E12.37785 ; brim
G1 X-13.564 Y-13.058 E12.68485 ; brim
G1 X-13.058 Y-13.564 E12.69326 ; brim
G1 X13.058 Y-13.564 E13.00025 ; brim
G1 X13.564 Y-13.058 E13.00867 F6000.000 ; brim
G1 X13.564 Y-0.045 E13.16163 ; brim
G1 X13.407 Y0.000 F60000.000 ; move to first brim point
G1 X13.407 Y12.993 E13.31437 F6000.000 ; brim
G1 X12.993 Y13.407 E13.32125 ; brim
G1 X-12.993 Y13.407 E13.62671 ; brim
G1 X-13.407 Y12.993 E13.63360 ; brim
G1 X-13.407 Y-12.993 E13.93906 ; brim
G1 X-12.993 Y-13.407 E13.94594 ; brim
G1 X12.993 Y-13.407 E14.25141 ; brim
G1 X13.407 Y-12.993 E14.25829 ; brim
G1 X13.407 Y-0.045 E14.41049 F6000.000 ; brim
G1 X13.250 Y0.000 F60000.000 ; move to first brim point
G1 X13.250 Y12.928 E14.56246 F6000.000 ; brim
G1 X12.928 Y13.250 E14.56781 ; brim
G1 X-12.928 Y13.250 E14.87175 ; brim
G1 X-13.250 Y12.928 E14.87710 ; brim
G1 X-13.250 Y-12.928 E15.18103 ; brim
G1 X-12.928 Y-13.250 E15.18639 ; brim
G1 X12.928 Y-13.250 E15.49032 ; brim
G1 X13.250 Y-12.928 E15.49567 F6000.000 ; brim
G1 X13.250 Y-0.045 E15.64711 ; brim
G1 X13.093 Y0.000 F60000.000 ; move to first brim point
G1 X13.093 Y12.863 E15.79831 F6000.000 ; brim
G1 X12.863 Y13.093 E15.80214 ; brim
G1 X-12.863 Y13.093 E16.10454 ; brim
G1 X-13.093 Y12.863 E16.10837 ; brim
G1 X-13.093 Y-12.863 E16.41077 ; brim
G1 X-12.863 Y-13.093 E16.41459 ; brim
G1 X12.863 Y-13.093 E16.71700 ; brim
G1 X13.093 Y-12.863 E16.72082 ; brim
G1 X13.093 Y-0.045 E16.87149 F6000.000 ; brim
G92 E0 ; reset extrusion distance
G1 X12.936 Y12.798 F60000.000 ; move to first brim point
G1 X12.798 Y12.936 E0.00229 F6000.000 ; brim
G1 X-12.798 Y12.936 E0.30317 ; brim
G1 X-12.936 Y12.798 E0.30546 ; brim
G1 X-12.936 Y-12.798 E0.60634 ; brim
G1 X-12.798 Y-12.936 E0.60863 ; brim
G1 X12.798 Y-12.936 E0.90951 ; brim
G1 X12.936 Y-12.798 E0.91180 ; brim
G1 X12.936 Y12.753 E1.21215 ; brim
G1 X12.733 Y12.779 F60000.000 ; move to first brim point
G1 X-12.733 Y12.779 E1.51149 F6000.000 ; brim
G1 X-12.779 Y12.733 E1.51225 ; brim
G1 X-12.779 Y-12.733 E1.81160 ; brim
G1 X-12.733 Y-12.779 E1.81236 ; brim
G1 X12.733 Y-12.779 E2.11171 ; brim
G1 X12.779 Y-12.733 E2.11247 ; brim
G1 X12.779 Y12.733 E2.41182 ; brim
G1 X12.764 Y12.747 E2.41205 ; brim
G1 X12.600 Y12.600 F60000.000 ; move to first perimeter point
G1 X-12.600 Y12.600 E2.70828 F6000.000 ; perimeter
G1 X-12.600 Y-12.600 E3.00451 ; perimeter
G1 X12.600 Y-12.600 E3.30074 ; perimeter
G1 X12.600 Y12.555 E3.59644 ; perimeter
G1 X12.340 Y12.450 F60000.000 ; move inwards before travel
G1 X12.443 Y12.443 F60000.000 ; move to first perimeter point
G1 X-12.443 Y12.443 E3.88897 F6000.000 ; perimeter
G1 X-12.443 Y-12.443 E4.18151 ; perimeter
G1 X12.443 Y-12.443 E4.47405 ; perimeter
G1 X12.443 Y12.398 E4.76605 ; perimeter
G1 X12.286 Y12.286 F60000.000 ; move to first perimeter point
G1 X-12.286 Y12.286 E5.05490 F6000.000 ; perimeter
G1 X-12.286 Y-12.286 E5.34374 ; perimeter
G1 X12.286 Y-12.286 E5.63258 ; perimeter
G1 X12.286 Y12.241 E5.92089 ; perimeter
G1 X-11.876 Y12.206 F60000.000 ; move to first infill point
G1 X-12.206 Y11.876 E5.92639 F6000.000 ; infill
G1 X-12.206 Y11.653 E5.92902 ; infill
G1 X-11.653 Y12.206 E5.93824 ; infill
G1 X-11.430 Y12.206 E5.94087 ; infill
G1 X-12.206 Y11.430 E5.95381 ; infill
G1 X-12.206 Y11.207 E5.95644 ; infill
G1 X-11.207 Y12.206 E5.97310 ; infill
G1 X-10.984 Y12.206 E5.97573 ; infill
G1 X-12.206 Y10.984 E5.99611 ; infill
G1 X-12.206 Y10.761 E5.99874 ; infill
G1 X-10.761 Y12.206 E6.02284 ; infill
G1 X-10.538 Y12.206 E6.02547 ; infill
G1 X-12.206 Y10.538 E6.05330 ; infill
G1 X-12.206 Y10.315 E6.05593 ; infill
G1 X-10.315 Y12.206 E6.08747 ; infill
G1 X-10.092 Y12.206 E6.09010 ; infill
G1 X-12.206 Y10.092 E6.12536 ; infill
G1 X-12.206 Y9.869 E6.12800 ; infill
G1 X-9.869 Y12.206 E6.16698 ; infill
G1 X-9.646 Y12.206 E6.16961 ; infill
G1 X-12.206 Y9.646 E6.21232 ; infill
G1 X-12.206 Y9.423 E6.21495 ; infill
G1 X-9.423 Y12.206 E6.26137 ; infill
G1 X-9.200 Y12.206 E6.26400 ; infill
G1 X-12.206 Y9.200 E6.31415 ; infill
G1 X-12.206 Y8.978 E6.31678 ; infill
G1 X-8.978 Y12.206 E6.37065 ; infill
G1 X-8.755 Y12.206 E6.37328 ; infill
G1 X-12.206 Y8.755 E6.43087 ; infill
G1 X-12.206 Y8.532 E6.43350 ; infill
G1 X-8.532 Y12.206 E6.49481 ; infill
G1 X-8.309 Y12.206 E6.49744 ; infill
G1 X-12.206 Y8.309 E6.56247 ; infill
G1 X-12.206 Y8.086 E6.56510 ; infill
G1 X-8.086 Y12.206 E6.63385 ; infill
G1 X-7.863 Y12.206 E6.63648 ; infill
G1 X-12.206 Y7.863 E6.70895 ; infill
G1 X-12.206 Y7.640 E6.71159 ; infill
G1 X-7.640 Y12.206 E6.78778 ; infill
G1 X-7.417 Y12.206 E6.79041 ; infill
G1 X-12.206 Y7.417 E6.87032 ; infill
G1 X-12.206 Y7.194 E6.87295 ; infill
G1 X-7.194 Y12.206 E6.95659 ; infill
G1 X-6.971 Y12.206 E6.95922 ; infill
G1 X-12.206 Y6.971 E7.04657 ; infill
G1 X-12.206 Y6.748 E7.04920 ; infill
G1 X-6.748 Y12.206 E7.14028 ; infill
G1 X-6.525 Y12.206 E7.14291 ; infill
G1 X-12.206 Y6.525 E7.23771 ; infill
G1 X-12.206 Y6.302 E7.24034 ; infill
G1 X-6.302 Y12.206 E7.33885 ; infill
G1 X-6.079 Y12.206 E7.34149 ; infill
G1 X-12.206 Y6.079 E7.44372 ; infill
G1 X-12.206 Y5.856 E7.44635 ; infill
G1 X-5.856 Y12.206 E7.55231 ; infill
G1 X-5.633 Y12.206 E7.55494 ; infill
G1 X-12.206 Y5.633 E7.66462 ; infill
G1 X-12.206 Y5.410 E7.66726 ; infill
G1 X-5.410 Y12.206 E7.78066 ; infill
G1 X-5.187 Y12.206 E7.78329 ; infill
G1 X-12.206 Y5.187 E7.90041 ; infill
G1 X-12.206 Y4.964 E7.90304 ; infill
G1 X-4.964 Y12.206 E8.02388 ; infill
G1 X-4.741 Y12.206 E8.02651 ; infill
G1 X-12.206 Y4.741 E8.15108 ; infill
G1 X-12.206 Y4.518 E8.15371 ; infill
G1 X-4.518 Y12.206 E8.28199 ; infill
G1 X-4.295 Y12.206 E8.28462 ; infill
G1 X-12.206 Y4.295 E8.41663 ; infill
G1 X-12.206 Y4.072 E8.41926 ; infill
G1 X-4.072 Y12.206 E8.55498 ; infill
G1 X-3.849 Y12.206 E8.55761 ; infill
G1 X-12.206 Y3.849 E8.69706 ; infill
G1 X-12.206 Y3.626 E8.69969 ; infill
G1 X-3.626 Y12.206 E8.84286 ; infill
G1 X-3.403 Y12.206 E8.84549 ; infill
G1 X-12.206 Y3.403 E8.99238 ; infill
G1 X-12.206 Y3.180 E8.99501 ; infill
G1 X-3.180 Y12.206 E9.14562 ; infill
G1 X-2.957 Y12.206 E9.14825 ; infill
G1 X-12.206 Y2.957 E9.30258 ; infill
G1 X-12.206 Y2.734 E9.30521 ; infill
G1 X-2.734 Y12.206 E9.46326 ; infill
G1 X-2.511 Y12.206 E9.46589 ; infill
G1 X-12.206 Y2.511 E9.62766 ; infill
G1 X-12.206 Y2.288 E9.63029 ; infill
G1 X-2.288 Y12.206 E9.79578 ; infill
G1 X-2.065 Y12.206 E9.79841 ; infill
G1 X-12.206 Y2.065 E9.96763 ; infill
G1 X-12.206 Y1.842 E9.97026 ; infill
G1 X-1.842 Y12.206 E10.14319 ; infill
G1 X-1.619 Y12.206 E10.14582 ; infill
G1 X-12.206 Y1.619 E10.32247 ; infill
G1 X-12.206 Y1.396 E10.32511 ; infill
G1 X-1.396 Y12.206 E10.50548 ; infill
G1 X-1.173 Y12.206 E10.50811 ; infill
G1 X-12.206 Y1.173 E10.69221 ; infill
G1 X-12.206 Y0.950 E10.69484 ; infill
G1 X-0.950 Y12.206 E10.88266 ; infill
G1 X-0.727 Y12.206 E10.88529 ; infill
G1 X-12.206 Y0.727 E11.07682 ; infill
G1 X-12.206 Y0.504 E11.07945 ; infill
G1 X-0.504 Y12.206 E11.27471 ; infill
G1 X-0.281 Y12.206 E11.27734 ; infill
G1 X-12.206 Y0.281 E11.47632 ; infill
G1 X-12.206 Y0.058 E11.47895 ; infill
G1 X-0.058 Y12.206 E11.68165 ; infill
G1 X0.165 Y12.206 E11.68428 ; infill
G1 X-12.206 Y-0.165 E11.89071 ; infill
G1 X-12.206 Y-0.388 E11.89334 ; infill
G1 X0.388 Y12.206 E12.10348 ; infill
G1 X0.611 Y12.206 E12.10611 ; infill
G1 X-12.206 Y-0.611 E12.31997 ; infill
G1 X-12.206 Y-0.834 E12.32260 ; infill
G1 X0.834 Y12.206 E12.54019 ; infill
G1 X1.057 Y12.206 E12.54282 ; infill
G1 X-12.206 Y-1.057 E12.76412 ; infill
G1 X-12.206 Y-1.280 E12.76675 ; infill
G1 X1.280 Y12.206 E12.99178 ; infill
G1 X1.503 Y12.206 E12.99441 ; infill
G1 X-12.206 Y-1.503 E13.22315 ; infill
G1 X-12.206 Y-1.726 E13.22578 ; infill
G1 X1.726 Y12.206 E13.45825 ; infill
G1 X1.949 Y12.206 E13.46088 ; infill
G1 X-12.206 Y-1.949 E13.69707 ; infill
G1 X-12.206 Y-2.171 E13.69970 ; infill
G1 X2.171 Y12.206 E13.93961 ; infill
G1 X2.394 Y12.206 E13.94224 ; infill
G1 X-12.206 Y-2.394 E14.18587 ; infill
G1 X-12.206 Y-2.617 E14.18850 ; infill
G1 X2.617 Y12.206 E14.43585 ; infill
G1 X2.840 Y12.206 E14.43848 ; infill
G1 X-12.206 Y-2.840 E14.68955 ; infill
G1 X-12.206 Y-3.063 E14.69218 ; infill
G1 X3.063 Y12.206 E14.94697 ; infill
G1 X3.286 Y12.206 E14.94960 ; infill
G1 X-12.206 Y-3.286 E15.20811 ; infill
G1 X-12.206 Y-3.509 E15.21074 ; infill
G1 X3.509 Y12.206 E15.47298 ; infill
G1 X3.732 Y12.206 E15.47561 ; infill
G1 X-12.206 Y-3.732 E15.74156 ; infill
G1 X-12.206 Y-3.955 E15.74419 ; infill
G1 X3.955 Y12.206 E16.01387 ; infill
G1 X4.178 Y12.206 E16.01650 ; infill
G1 X-12.206 Y-4.178 E16.28989 ; infill
G1 X-12.206 Y-4.401 E16.29252 ; infill
G1 X4.401 Y12.206 E16.56964 ; infill
G1 X4.624 Y12.206 E16.57227 ; infill
G1 X-12.206 Y-4.624 E16.85311 ; infill
G1 X-12.206 Y-4.847 E16.85574 ; infill
G1 X4.847 Y12.206 E17.14030 ; infill
G1 X5.070 Y12.206 E17.14293 ; infill
G1 X-12.206 Y-5.070 E17.43121 ; infill
G1 X-12.206 Y-5.293 E17.43384 ; infill
G1 X5.293 Y12.206 E17.72584 ; infill
G1 X5.516 Y12.206 E17.72847 ; infill
G1 X-12.206 Y-5.516 E18.02419 ; infill
G1 X-12.206 Y-5.739 E18.02682 ; infill
G1 X5.739 Y12.206 E18.32626 ; infill
G1 X5.962 Y12.206 E18.32889 ; infill
G1 X-12.206 Y-5.962 E18.63205 ; infill
G1 X-12.206 Y-6.185 E18.63468 ; infill
G1 X6.185 Y12.206 E18.94157 ; infill
G1 X6.408 Y12.206 E18.94420 ; infill
G1 X-12.206 Y-6.408 E19.25480 ; infill
G1 X-12.206 Y-6.631 E19.25743 ; infill
G1 X6.631 Y12.206 E19.57175 ; infill
G1 X6.854 Y12.206 E19.57439 ; infill
G1 X-12.206 Y-6.854 E19.89243 ; infill
G1 X-12.206 Y-7.077 E19.89506 ; infill
G1 X7.077 Y12.206 E20.21683 ; infill
G91 ; relative position
G1 Z5
G1 Z-5
G90 ; absolute position
G91 ; relative position
; generated by Slic3r 1.2.9 on 2016-03-30 at 22:10:32

; external perimeters extrusion width = 0.30mm
; perimeters extrusion width = 0.51mm
; infill extrusion width = 0.73mm
; solid infill extrusion width = 0.51mm
; top infill extrusion width = 0.51mm

M107 ; disable fan
M190 S55 ; set bed temperature
M104 S190 ; set temperature
G28 ; home all axes


M109 S190 ; wait for temperature to be reached
G21 ; set units to millimeters
G90 ; use absolute coordinates
M82 ; use absolute distances for extrusion
G92 E0 ; reset extrusion distance
G1 Z0.200 F60000.000 ; move to next layer (0)
G1 X14.978 Y0.000 F60000.000 ; move to first brim point
G1 X14.978 Y13.643 E0.16038 F6000.000 ; brim
G1 X13.643 Y14.978 E0.18256 ; brim
G1 X-13.643 Y14.978 E0.50332 ; brim
G1 X-14.978 Y13.643 E0.52550 ; brim
G1 X-14.978 Y-13.643 E0.84626 ; brim
G1 X-13.643 Y-14.978 E0.86844 ; brim
G1 X13.643 Y-14.978 E1.18920 ; brim
G1 X14.978 Y-13.643 E1.21138 ; brim
G1 X14.978 Y-0.045 E1.37123 F6000.000 ; brim
G1 X14.821 Y0.000 F60000.000 ; move to first brim point
G1 X14.821 Y13.578 E1.53085 F6000.000 ; brim
G1 X13.578 Y14.821 E1.55150 ; brim
G1 X-13.578 Y14.821 E1.87073 ; brim
G1 X-14.821 Y13.578 E1.89138 ; brim
G1 X-14.821 Y-13.578 E2.21061 ; brim
G1 X-13.578 Y-14.821 E2.23126 ; brim
G1 X13.578 Y-14.821 E2.55049 ; brim
G1 X14.821 Y-13.578 E2.57114 F6000.000 ; brim
G1 X14.821 Y-0.045 E2.73023 ; brim
G1 X14.663 Y0.000 F60000.000 ; move to first brim point
G1 X14.663 Y13.513 E2.88908 F6000.000 ; brim
G1 X13.513 Y14.663 E2.90820 ; brim
G1 X-13.513 Y14.663 E3.22590 ; brim
G1 X-14.663 Y13.513 E3.24502 ; brim
G1 X-14.663 Y-13.513 E3.56272 ; brim
G1 X-13.513 Y-14.663 E3.58184 ; brim
G1 X13.513 Y-14.663 E3.89954 ; brim
G1 X14.663 Y-13.513 E3.91866 ; brim
G1 X14.663 Y-0.045 E4.07698 F6000.000 ; brim
G1 X14.506 Y0.000 F60000.000 ; move to first brim point
G1 X14.506 Y13.448 E4.23507 F6000.000 ; brim
G1 X13.448 Y14.506 E4.25266 ; brim
G1 X-13.448 Y14.506 E4.56883 ; brim
G1 X-14.506 Y13.448 E4.58642 ; brim
G1 X-14.506 Y-13.448 E4.90259 ; brim
G1 X-13.448 Y-14.506 E4.92018 ; brim
