; generated by Slic3r 1.2.9 on 2016-12-23 at 11:53:22

; external perimeters extrusion width = 0.20mm
; perimeters extrusion width = 0.34mm
; infill extrusion width = 0.34mm
; solid infill extrusion width = 0.34mm
; top infill extrusion width = 0.34mm

M190 S55 ; set bed temperature
M104 S190 ; set temperature
G28 ; home all axes


M109 S190 ; wait for temperature to be reached
G21 ; set units to millimeters
G90 ; use absolute coordinates
M82 ; use absolute distances for extrusion
G92 E0 ; reset extrusion distance
G1 Z0.100 F3000000.000 ; move to next layer (0)
G1 X-5.074 Y2.204 F3000000.000 ; move to first brim point
G1 Z0.200 F3000000.000 ; move to next layer (1)
G92 E0 ; reset extrusion distance
G1 X-3.096 Y-1.214 F3000000.000 ; move to first perimeter point
G1 Z0.300 F3000000.000 ; move to next layer (2)
G92 E0 ; reset extrusion distance
G1 X-3.096 Y-1.214 F3000000.000 ; move to first perimeter point
G1 Z0.400 F3000000.000 ; move to next layer (3)
G92 E0 ; reset extrusion distance
G1 X-3.096 Y-1.214 F3000000.000 ; move to first perimeter point
G1 Z0.500 F3000000.000 ; move to next layer (4)
G1 X-3.093 Y-1.220 F3000000.000 ; move to first perimeter point
G1 X-2.269 Y-2.431 E0.76728 F360000.000 ; perimeter
G1 X-3.628 Y-1.410 E1.49630 ; perimeter
G1 X-3.422 Y-1.452 F3000000.000 ; move inwards before travel
G1 Z0.600 F3000000.000 ; move to next layer (5)
G1 X-3.096 Y-1.214 F3000000.000 ; move to first perimeter point
G1 X-2.269 Y-2.431 E1.51552 F360000.000 ; perimeter
G1 X-3.425 Y-1.446 F3000000.000 ; move inwards before travel
G1 Z0.700 F3000000.000 ; move to next layer (6)
G1 X-3.096 Y-1.214 F3000000.000 ; move to first perimeter point
G1 X-2.269 Y-2.431 E2.26367 F360000.000 ; perimeter
G1 X-3.898 Y-0.000 E2.98199 ; perimeter
G1 X-3.630 Y-1.404 E2.99260 ; perimeter
G1 X-3.425 Y-1.446 F3000000.000 ; move inwards before travel
M104 S0 ; turn off temperature
G28 X0  ; home X axis
M84     ; disable motors

; filament used = 130.0mm (0.3cm3)

